swiss/communes/0029.svg

<?xml version="1.0" encoding="UTF-8" standalone="no"?>
<!-- Created with Inkscape (http://www.inkscape.org/) -->
<svg
   xmlns:svg="http://www.w3.org/2000/svg"
   xmlns="http://www.w3.org/2000/svg"
   version="1.0"
   width="210.66693"
   height="246.76352"
   id="svg2780">
  <defs
     id="defs2782" />
  <g
     transform="translate(-17.716535,-804.33069)"
     id="layer1">
    <path
       d="M 18.716535,805.33069 L 22.510476,964.71155 C 25.220426,1078.5551 220.87956,1078.5551 223.58952,964.71155 L 227.38346,805.33069 L 18.716535,805.33069 z"
       id="path3282"
       style="fill:#2163c0;fill-opacity:1;fill-rule:evenodd;stroke:#000000;stroke-width:2;stroke-linecap:butt;stroke-miterlimit:4;stroke-dashoffset:0;stroke-opacity:1" />
    <g
       transform="matrix(-1,0,0,0.9625253,249.93037,35.803167)"
       id="use2768">
      <path
         d="M 156.23114,52.125413 C 191.67848,10.996616 264.03882,39.716776 194.31909,140.64464 C 191.19919,135.13354 187.68183,129.22786 184.09176,125.12732 C 192.23062,91.775774 197.49497,58.672386 156.23114,52.125413 z"
         transform="translate(0,804.33069)"
         id="path2772"
         style="fill:#ffffff;fill-opacity:1;fill-rule:evenodd;stroke:#000000;stroke-width:1.01928103px;stroke-linecap:butt;stroke-linejoin:miter;stroke-opacity:1" />
      <path
         d="M 199.58702,139.52694 L 201.37241,188.16641 C 201.44229,190.07006 198.18731,191.6049 194.23092,191.6049 C 190.27454,191.6049 187.01955,190.07006 187.08943,188.16641 L 188.8748,139.52694 L 199.58702,139.52694 z"
         transform="translate(0,804.33069)"
         id="path2774"
         style="color:#000000;fill:#ebdc39;fill-opacity:1;fill-rule:evenodd;stroke:#000000;stroke-width:1.01928115px;stroke-linecap:butt;stroke-linejoin:miter;marker:none;marker-start:none;marker-mid:none;marker-end:none;stroke-miterlimit:4;stroke-dashoffset:0;stroke-opacity:1;visibility:visible;display:inline;overflow:visible;enable-background:accumulate" />
      <rect
         width="17.633312"
         height="9.5219879"
         ry="1.0579987"
         x="184.97343"
         y="937.39294"
         id="rect2776"
         style="opacity:1;color:#000000;fill:#ffffff;fill-opacity:1;fill-rule:evenodd;stroke:#000000;stroke-width:1.01928115px;stroke-linecap:butt;stroke-linejoin:miter;marker:none;marker-start:none;marker-mid:none;marker-end:none;stroke-miterlimit:4;stroke-dasharray:none;stroke-dashoffset:0;stroke-opacity:1;visibility:visible;display:inline;overflow:visible;enable-background:accumulate" />
    </g>
    <g
       transform="translate(-72.09,-16.692344)"
       id="use2778">
      <path
         d="M 156.23114,52.125413 C 191.67848,10.996616 264.03882,39.716776 194.31909,140.64464 C 191.19919,135.13354 187.68183,129.22786 184.09176,125.12732 C 192.23062,91.775774 197.49497,58.672386 156.23114,52.125413 z"
         transform="translate(0,804.33069)"
         id="path3736"
         style="fill:#ffffff;fill-opacity:1;fill-rule:evenodd;stroke:#000000;stroke-width:1px;stroke-linecap:butt;stroke-linejoin:miter;stroke-opacity:1" />
      <path
         d="M 199.58702,139.52694 L 201.37241,188.16641 C 201.44229,190.07006 198.18731,191.6049 194.23092,191.6049 C 190.27454,191.6049 187.01955,190.07006 187.08943,188.16641 L 188.8748,139.52694 L 199.58702,139.52694 z"
         transform="translate(0,804.33069)"
         id="path3738"
         style="color:#000000;fill:#ebdc39;fill-opacity:1;fill-rule:evenodd;stroke:#000000;stroke-width:1.00000012px;stroke-linecap:butt;stroke-linejoin:miter;marker:none;marker-start:none;marker-mid:none;marker-end:none;stroke-miterlimit:4;stroke-dashoffset:0;stroke-opacity:1;visibility:visible;display:inline;overflow:visible;enable-background:accumulate" />
      <rect
         width="17.633312"
         height="9.5219879"
         ry="1.0579987"
         x="184.97343"
         y="937.39294"
         id="rect3740"
         style="opacity:1;color:#000000;fill:#ffffff;fill-opacity:1;fill-rule:evenodd;stroke:#000000;stroke-width:1.00000012px;stroke-linecap:butt;stroke-linejoin:miter;marker:none;marker-start:none;marker-mid:none;marker-end:none;stroke-miterlimit:4;stroke-dasharray:none;stroke-dashoffset:0;stroke-opacity:1;visibility:visible;display:inline;overflow:visible;enable-background:accumulate" />
    </g>
    <g
       transform="matrix(1,0,0,0.9625253,-4.70513,35.740372)"
       id="use2780">
      <path
         d="M 164.15395,52.125413 C 191.62136,7.8876359 265.53506,43.862083 194.31909,140.64464 C 191.19919,135.13354 187.68183,129.22786 184.09176,125.12732 C 195.22309,100.06639 195.44287,60.745039 164.15395,52.125413 z"
         transform="translate(0,804.33069)"
         id="path3744"
         style="fill:#ffffff;fill-opacity:1;fill-rule:evenodd;stroke:#000000;stroke-width:1.01928103px;stroke-linecap:butt;stroke-linejoin:miter;stroke-opacity:1" />
      <path
         d="M 199.58702,139.52694 L 201.37241,188.16641 C 201.44229,190.07006 198.18731,191.6049 194.23092,191.6049 C 190.27454,191.6049 187.01955,190.07006 187.08943,188.16641 L 188.8748,139.52694 L 199.58702,139.52694 z"
         transform="translate(0,804.33069)"
         id="path3746"
         style="color:#000000;fill:#ebdc39;fill-opacity:1;fill-rule:evenodd;stroke:#000000;stroke-width:1.01928115px;stroke-linecap:butt;stroke-linejoin:miter;marker:none;marker-start:none;marker-mid:none;marker-end:none;stroke-miterlimit:4;stroke-dashoffset:0;stroke-opacity:1;visibility:visible;display:inline;overflow:visible;enable-background:accumulate" />
      <rect
         width="17.633312"
         height="9.5219879"
         ry="1.0579987"
         x="184.97343"
         y="937.39294"
         id="rect3748"
         style="opacity:1;color:#000000;fill:#ffffff;fill-opacity:1;fill-rule:evenodd;stroke:#000000;stroke-width:1.01928115px;stroke-linecap:butt;stroke-linejoin:miter;marker:none;marker-start:none;marker-mid:none;marker-end:none;stroke-miterlimit:4;stroke-dasharray:none;stroke-dashoffset:0;stroke-opacity:1;visibility:visible;display:inline;overflow:visible;enable-background:accumulate" />
    </g>
    <g
       transform="translate(0.167923,0)"
       id="g3761"
       style="fill:#ebdc39;fill-opacity:1">
      <path
         d="M 70.625,193.6875 C 65.391261,193.55824 60.679866,195.2024 57.25,199.28125 C 51.301209,206.35562 50.720862,219.30576 57.46875,226.4375 C 61.363696,229.16442 65.501381,231.60036 69.8125,233.75 C 69.869997,233.7781 69.910923,233.81554 69.96875,233.84375 C 71.253979,234.48177 72.558642,235.10068 73.875,235.6875 C 88.990796,242.426 106.0775,245.76242 123.15625,245.75 C 124.52807,234.70271 97.247288,203.97128 87.125,198.625 C 81.5994,195.70657 75.858739,193.81676 70.625,193.6875 z"
         transform="translate(-0.167923,804.33069)"
         id="path3783"
         style="color:#000000;fill:#ebdc39;fill-opacity:1;fill-rule:evenodd;stroke:#000000;stroke-width:0.9999999pt;stroke-linecap:butt;stroke-linejoin:miter;marker:none;marker-start:none;marker-mid:none;marker-end:none;stroke-miterlimit:4;stroke-dashoffset:0;stroke-opacity:1;visibility:visible;display:inline;overflow:visible;enable-background:accumulate" />
      <path
         d="M 175.46875,193.6875 C 170.23501,193.81676 164.49435,195.70657 158.96875,198.625 C 148.84647,203.97128 121.56568,234.70271 122.9375,245.75 C 141.50447,245.76788 160.07811,241.80459 176.125,233.84375 C 176.19174,233.81119 176.2462,233.78241 176.3125,233.75 C 180.62362,231.60036 184.73005,229.16442 188.625,226.4375 C 195.37288,219.30576 194.79254,206.35562 188.84375,199.28125 C 185.41388,195.2024 180.70249,193.55824 175.46875,193.6875 z"
         transform="translate(-0.167923,804.33069)"
         id="path3766"
         style="color:#000000;fill:#ebdc39;fill-opacity:1;fill-rule:evenodd;stroke:#000000;stroke-width:0.9999999pt;stroke-linecap:butt;stroke-linejoin:miter;marker:none;marker-start:none;marker-mid:none;marker-end:none;stroke-miterlimit:4;stroke-dashoffset:0;stroke-opacity:1;visibility:visible;display:inline;overflow:visible;enable-background:accumulate" />
      <path
         d="M 122.88207,1049.86 C 142.59047,1049.86 148.54262,1034.6456 149.95328,1015.2906 C 151.09035,999.68927 138.35847,986.95248 122.88207,986.95248 C 107.40567,986.95248 94.673788,999.68931 95.810862,1015.2906 C 97.221523,1034.6456 103.17367,1049.86 122.88207,1049.86 z"
         id="path3754"
         style="color:#000000;fill:#ebdc39;fill-opacity:1;fill-rule:evenodd;stroke:#000000;stroke-width:0.9999999pt;stroke-linecap:butt;stroke-linejoin:miter;marker:none;marker-start:none;marker-mid:none;marker-end:none;stroke-miterlimit:4;stroke-dashoffset:0;stroke-opacity:1;visibility:visible;display:inline;overflow:visible;enable-background:accumulate" />
    </g>
  </g>
</svg>

<svg xmlns="http://www.w3.org/2000/svg" version="1.0" width="210.667" height="246.764"><path d="m18.717 805.33 3.793 159.382c2.71 113.843 198.37 113.843 201.08 0l3.793-159.381H18.717z" style="fill:#2163c0;fill-opacity:1;fill-rule:evenodd;stroke:#000;stroke-width:2;stroke-linecap:butt;stroke-miterlimit:4;stroke-dashoffset:0;stroke-opacity:1" transform="translate(-17.717 -804.33)"/><g transform="matrix(-1 0 0 .96253 232.214 -768.528)"><path d="M156.231 52.125c35.447-41.128 107.808-12.408 38.088 88.52-3.12-5.511-6.637-11.417-10.227-15.518 8.139-33.351 13.403-66.455-27.86-73.002z" transform="translate(0 804.33)" style="fill:#fff;fill-opacity:1;fill-rule:evenodd;stroke:#000;stroke-width:1.01928103px;stroke-linecap:butt;stroke-linejoin:miter;stroke-opacity:1"/><path d="m199.587 139.527 1.785 48.64c.07 1.903-3.185 3.438-7.141 3.438s-7.211-1.535-7.142-3.439l1.786-48.64h10.712z" transform="translate(0 804.33)" style="color:#000;fill:#ebdc39;fill-opacity:1;fill-rule:evenodd;stroke:#000;stroke-width:1.01928115px;stroke-linecap:butt;stroke-linejoin:miter;marker:none;marker-start:none;marker-mid:none;marker-end:none;stroke-miterlimit:4;stroke-dashoffset:0;stroke-opacity:1;visibility:visible;display:inline;overflow:visible;enable-background:accumulate"/><rect width="17.633" height="9.522" ry="1.058" x="184.973" y="937.393" style="opacity:1;color:#000;fill:#fff;fill-opacity:1;fill-rule:evenodd;stroke:#000;stroke-width:1.01928115px;stroke-linecap:butt;stroke-linejoin:miter;marker:none;marker-start:none;marker-mid:none;marker-end:none;stroke-miterlimit:4;stroke-dasharray:none;stroke-dashoffset:0;stroke-opacity:1;visibility:visible;display:inline;overflow:visible;enable-background:accumulate"/></g><g transform="translate(-89.807 -821.023)"><path d="M156.231 52.125c35.447-41.128 107.808-12.408 38.088 88.52-3.12-5.511-6.637-11.417-10.227-15.518 8.139-33.351 13.403-66.455-27.86-73.002z" transform="translate(0 804.33)" style="fill:#fff;fill-opacity:1;fill-rule:evenodd;stroke:#000;stroke-width:1px;stroke-linecap:butt;stroke-linejoin:miter;stroke-opacity:1"/><path d="m199.587 139.527 1.785 48.64c.07 1.903-3.185 3.438-7.141 3.438s-7.211-1.535-7.142-3.439l1.786-48.64h10.712z" transform="translate(0 804.33)" style="color:#000;fill:#ebdc39;fill-opacity:1;fill-rule:evenodd;stroke:#000;stroke-width:1.00000012px;stroke-linecap:butt;stroke-linejoin:miter;marker:none;marker-start:none;marker-mid:none;marker-end:none;stroke-miterlimit:4;stroke-dashoffset:0;stroke-opacity:1;visibility:visible;display:inline;overflow:visible;enable-background:accumulate"/><rect width="17.633" height="9.522" ry="1.058" x="184.973" y="937.393" style="opacity:1;color:#000;fill:#fff;fill-opacity:1;fill-rule:evenodd;stroke:#000;stroke-width:1.00000012px;stroke-linecap:butt;stroke-linejoin:miter;marker:none;marker-start:none;marker-mid:none;marker-end:none;stroke-miterlimit:4;stroke-dasharray:none;stroke-dashoffset:0;stroke-opacity:1;visibility:visible;display:inline;overflow:visible;enable-background:accumulate"/></g><g transform="matrix(1 0 0 .96253 -22.422 -768.59)"><path d="M164.154 52.125c27.467-44.237 101.381-8.263 30.165 88.52-3.12-5.511-6.637-11.417-10.227-15.518 11.131-25.06 11.35-64.382-19.938-73.002z" transform="translate(0 804.33)" style="fill:#fff;fill-opacity:1;fill-rule:evenodd;stroke:#000;stroke-width:1.01928103px;stroke-linecap:butt;stroke-linejoin:miter;stroke-opacity:1"/><path d="m199.587 139.527 1.785 48.64c.07 1.903-3.185 3.438-7.141 3.438s-7.211-1.535-7.142-3.439l1.786-48.64h10.712z" transform="translate(0 804.33)" style="color:#000;fill:#ebdc39;fill-opacity:1;fill-rule:evenodd;stroke:#000;stroke-width:1.01928115px;stroke-linecap:butt;stroke-linejoin:miter;marker:none;marker-start:none;marker-mid:none;marker-end:none;stroke-miterlimit:4;stroke-dashoffset:0;stroke-opacity:1;visibility:visible;display:inline;overflow:visible;enable-background:accumulate"/><rect width="17.633" height="9.522" ry="1.058" x="184.973" y="937.393" style="opacity:1;color:#000;fill:#fff;fill-opacity:1;fill-rule:evenodd;stroke:#000;stroke-width:1.01928115px;stroke-linecap:butt;stroke-linejoin:miter;marker:none;marker-start:none;marker-mid:none;marker-end:none;stroke-miterlimit:4;stroke-dasharray:none;stroke-dashoffset:0;stroke-opacity:1;visibility:visible;display:inline;overflow:visible;enable-background:accumulate"/></g><g style="fill:#ebdc39;fill-opacity:1"><path d="M70.625 193.688c-5.234-.13-9.945 1.514-13.375 5.593-5.949 7.075-6.53 20.025.219 27.156 3.895 2.727 8.032 5.163 12.343 7.313.058.028.099.066.157.094 1.285.638 2.59 1.257 3.906 1.844 15.116 6.738 32.203 10.074 49.281 10.062 1.372-11.047-25.909-41.779-36.031-47.125-5.526-2.918-11.266-4.808-16.5-4.938z" transform="translate(-17.717)" style="color:#000;fill:#ebdc39;fill-opacity:1;fill-rule:evenodd;stroke:#000;stroke-width:.9999999pt;stroke-linecap:butt;stroke-linejoin:miter;marker:none;marker-start:none;marker-mid:none;marker-end:none;stroke-miterlimit:4;stroke-dashoffset:0;stroke-opacity:1;visibility:visible;display:inline;overflow:visible;enable-background:accumulate"/><path d="M175.469 193.688c-5.234.129-10.975 2.019-16.5 4.937-10.123 5.346-37.403 36.078-36.031 47.125 18.566.018 37.14-3.945 53.187-11.906.067-.033.121-.062.188-.094a96.564 96.564 0 0 0 12.312-7.313c6.748-7.131 6.168-20.081.219-27.156-3.43-4.079-8.142-5.723-13.375-5.594z" transform="translate(-17.717)" style="color:#000;fill:#ebdc39;fill-opacity:1;fill-rule:evenodd;stroke:#000;stroke-width:.9999999pt;stroke-linecap:butt;stroke-linejoin:miter;marker:none;marker-start:none;marker-mid:none;marker-end:none;stroke-miterlimit:4;stroke-dashoffset:0;stroke-opacity:1;visibility:visible;display:inline;overflow:visible;enable-background:accumulate"/><path d="M122.882 1049.86c19.708 0 25.66-15.214 27.071-34.57 1.137-15.6-11.595-28.338-27.07-28.338-15.477 0-28.21 12.737-27.072 28.339 1.41 19.355 7.363 34.569 27.071 34.569z" style="color:#000;fill:#ebdc39;fill-opacity:1;fill-rule:evenodd;stroke:#000;stroke-width:.9999999pt;stroke-linecap:butt;stroke-linejoin:miter;marker:none;marker-start:none;marker-mid:none;marker-end:none;stroke-miterlimit:4;stroke-dashoffset:0;stroke-opacity:1;visibility:visible;display:inline;overflow:visible;enable-background:accumulate" transform="translate(-17.549 -804.33)"/></g></svg>
